X: 26
T:Devil's Dream,The. HS.26
M:C|
L:1/8
S:Henry Stables MS,Cumbria,late19thC
R:reel
O:Walthwaite,nr.Ambleside.
A:England
Z:vmp.Chris Partington
K:A
e2|agae agae|agae fedc|dfBf dfBf|dfBf agfe|!
agae agae|agae fedc|.d.e.f.e .d.c.B.A|E2G2A2::!
e2|ceAe ceAe|ceAe .f.e.d.c|dfBf dfBf|dfBf .a.g.f.e|!
ceAe ceAe|ceAe .f.e.d.c|.d.e.f.e .d.c.B.A|E2G2A2:||
